X: 1
T: Harriet Haywood's Cranberry Bog
C: Deirdre Good Rees 2009
R: strathspey
Z: 2021 John Chambers <jc:trillian.mit.edu>
M: C
L: 1/8
K: D
|:\
D>E d>F D>G DA | AG FE D<C D>E | F>D F>E FD EF | D>C D>E FG FA |
d/c/B c/B/A B/A/G AF | c/B/A B/A/ A>F G>E | DE FG A>B c>d | d<A B>F GD ED :|
|:\
FE FG F>D A>D | AB AG A>B A>F | DE/F/ EF/G/ FG/A/ BG | dc dc B>G B<A |
d/c/B c/B/A B/A/G A/G/F | E/D/C DE FE DC | D>E D>F D>G DA | d<A F>D FA d2 :|
